svgs/1F616.svg

<svg xmlns="http://www.w3.org/2000/svg" version="1.1" xmlns:xlink="http://www.w3.org/1999/xlink" preserveAspectRatio="none" x="0px" y="0px" width="72px" height="72px" viewBox="0 0 72 72">
<defs>
<g id="Layer2_0_FILL">
<path fill="#FCC21B" stroke="none" d="
M 127.75 93.35
Q 127.75 66.35 119.25 46.3 103.65 9.65 64 9.65 24.3 9.65 8.7 46.3 0.2 66.35 0.2 93.35 0.2 103.75 18.9 111.05 37.55 118.4 64 118.4 90.4 118.4 109.1 111.05 127.75 103.75 127.75 93.35 Z"/>
</g>

<path id="Layer1_0_1_STROKES" stroke="#2F2F2F" stroke-width="3" stroke-linejoin="round" stroke-linecap="round" fill="none" d="
M 52.55 46.75
L 49.1 50.5 42.5 43 35.85 50.5 29.25 43 22.6 50.5 19.3 46.75"/>

<path id="Layer0_0_MEMBER_0_1_STROKES" stroke="#2F2F2F" stroke-width="3" stroke-linejoin="round" stroke-linecap="round" fill="none" d="
M 54.30413970947265 41.662864685058594
Q 48.95699920654297 38.20566177368164 42.54964981079101 36.03914794921875 48.95699920654297 33.73434600830078 54.30413970947265 30.415431213378906"/>

<path id="Layer0_0_MEMBER_1_1_STROKES" stroke="#2F2F2F" stroke-width="3" stroke-linejoin="round" stroke-linecap="round" fill="none" d="
M 17.74998092651367 30.415431213378906
Q 23.102883434295652 33.7518120855093 29.50447082519531 36.03914794921875 23.091359424591065 38.22564872801304 17.74998092651367 41.662864685058594"/>
</defs>

<g id="Layer_1">
<g transform="matrix( 0.5625, 0, 0, 0.5625, 0,0) ">
<use xlink:href="#Layer2_0_FILL"/>
</g>
</g>

<g id="Camada_2">
<g transform="matrix( 1, 0, 0, 1, 0,3) ">
<use xlink:href="#Layer1_0_1_STROKES"/>
</g>
</g>

<g id="Camada_3">
<g transform="matrix( 0.9219207763671875, 0, 0, 0.9219207763671875, 2.4,2.85) ">
<use xlink:href="#Layer0_0_MEMBER_0_1_STROKES" transform="matrix( 1.084686279296875, 0, 0, 1.084686279296875, -2.6,-3.05) "/>
</g>

<g transform="matrix( 0.9219207763671875, 0, 0, 0.9219207763671875, 2.4,2.85) ">
<use xlink:href="#Layer0_0_MEMBER_1_1_STROKES" transform="matrix( 1.084686279296875, 0, 0, 1.084686279296875, -2.6,-3.05) "/>
</g>
</g>
</svg>

<svg xmlns="http://www.w3.org/2000/svg" xmlns:xlink="http://www.w3.org/1999/xlink" preserveAspectRatio="none" viewBox="0 0 72 72"><defs><path id="a" fill="#FCC21B" d="M127.75 93.35q0-27-8.5-47.05Q103.65 9.65 64 9.65q-39.7 0-55.3 36.65Q.2 66.35.2 93.35q0 10.4 18.7 17.7 18.65 7.35 45.1 7.35 26.4 0 45.1-7.35 18.65-7.3 18.65-17.7z"/><path id="b" fill="none" stroke="#2F2F2F" stroke-linecap="round" stroke-linejoin="round" stroke-width="3" d="M52.55 46.75L49.1 50.5 42.5 43l-6.65 7.5-6.6-7.5-6.65 7.5-3.3-3.75"/><path id="c" fill="none" stroke="#2F2F2F" stroke-linecap="round" stroke-linejoin="round" stroke-width="3" d="M54.304 41.663q-5.347-3.457-11.754-5.624 6.407-2.305 11.754-5.624"/><path id="d" fill="none" stroke="#2F2F2F" stroke-linecap="round" stroke-linejoin="round" stroke-width="3" d="M17.75 30.415q5.353 3.337 11.754 5.624-6.413 2.187-11.754 5.624"/></defs><use transform="scale(.5625)" xlink:href="#a"/><use transform="translate(0 3)" xlink:href="#b"/><use transform="matrix(1 0 0 1 .003 .038)" xlink:href="#c"/><use transform="matrix(1 0 0 1 .003 .038)" xlink:href="#d"/></svg>
